packages/ffe-icons/icons/filled/sm/offline_bolt.svg

<svg xmlns="http://www.w3.org/2000/svg" height="20" viewBox="0 -960 960 960" width="20"><path d="M480.343-116.001q-75.112 0-141.48-28.42-66.369-28.42-116.182-78.21-49.814-49.791-78.247-116.087t-28.433-141.673q0-75.378 28.42-141.246 28.42-65.869 78.21-115.682 49.791-49.814 116.087-78.247t141.673-28.433q75.378 0 141.246 28.42 65.869 28.42 115.682 78.21 49.814 49.791 78.247 115.853t28.433 141.173q0 75.112-28.42 141.48-28.42 66.369-78.21 116.182-49.791 49.814-115.853 78.247t-141.173 28.433Zm-15.342-312v132.232q0 16.09 16.5 19.429Q498-273 505.693-289.693l90.459-211.614q4.847-11.231-2.016-21.462-6.863-10.23-19.445-10.23h-75.692v-134.386q0-16.307-16-19.346-15.999-3.038-22.692 11.654l-93.075 215.384q-4.846 10.846 1.327 21.269 6.173 10.423 18.519 10.423h77.923Z"/></svg>

<svg xmlns="http://www.w3.org/2000/svg" height="20" viewBox="0 -960 960 960" width="20"><path d="M480.34-116q-75.11 0-141.48-28.42-66.37-28.42-116.18-78.21-49.81-49.79-78.25-116.09Q116-405.01 116-480.39q0-75.38 28.42-141.25t78.21-115.68q49.79-49.81 116.09-78.25Q405.01-844 480.39-844q75.38 0 141.25 28.42t115.68 78.21q49.81 49.79 78.25 115.85Q844-555.45 844-480.34q0 75.11-28.42 141.48-28.42 66.37-78.21 116.18-49.79 49.81-115.85 78.25Q555.45-116 480.34-116ZM465-428v132.23q0 16.09 16.5 19.43t24.19-13.35l90.46-211.62q4.85-11.23-2.01-21.46Q587.27-533 574.69-533H499v-134.38q0-16.31-16-19.35-16-3.04-22.69 11.65l-93.08 215.39q-4.84 10.84 1.33 21.27Q374.73-428 387.08-428H465Z"/></svg>
